X: 1559
T: Angry Peeler, The
R: jig
M: 6/8
K: Gmajor
B2A G2G,|B,DD D2B,|DEG AGE|GAB ABc|
B2A G2G,|B,DD D2B,|DEG AGE|GAG G2A:|
Bdd d2B|deB dBA|G2B AGE|GAB AGA|
Bdd d2B|deB dBA|G2B AGE|GAG G2A|
Bdd d2B|deB dBA|G2B AGE|GAB AGA|
Bdd d2B|def gdB|GAB AGE|GAG G2c||

